public/assets/images/mission/01.svg

<svg width="61" height="60" viewBox="0 0 61 60" fill="none" xmlns="http://www.w3.org/2000/svg">
<g clip-path="url(#clip0_1492_24866)">
<path d="M59.6458 15.7573C59.6457 15.7573 59.6457 15.7573 59.6455 15.7573L59.6436 15.7553L55.7707 15.2028C55.2264 15.1252 54.848 14.6211 54.9255 14.0768C54.9627 13.8152 55.1025 13.5792 55.3138 13.4207L58.4439 11.0731C58.8838 10.7432 58.9729 10.1192 58.643 9.67929L55.0589 4.90049C54.729 4.46057 54.105 4.37147 53.6651 4.70138L50.536 7.04896C50.0979 7.38136 49.4734 7.29574 49.141 6.85768C48.9796 6.645 48.9104 6.37632 48.949 6.11212L49.5026 2.2393C49.5806 1.69497 49.2026 1.19058 48.6584 1.11243C48.6581 1.11243 48.6577 1.1123 48.6573 1.1123L42.7475 0.268049C42.2033 0.189896 41.6987 0.567719 41.6205 1.11205C41.6205 1.11218 41.6205 1.11218 41.6205 1.1123L41.067 4.98512C40.9895 5.52945 40.4853 5.9079 39.941 5.83037C39.6794 5.79316 39.4434 5.6534 39.2849 5.44209L36.9383 2.31198C36.6084 1.87206 35.9844 1.78295 35.5445 2.11286L32.5528 4.3579C31.1993 4.21404 29.8343 4.21404 28.4808 4.3579C19.6169 5.37103 12.6659 12.4399 11.8019 21.3196C11.775 21.6014 11.765 21.8811 11.7511 22.1609H11.4524C10.98 22.1618 10.5732 22.4945 10.4787 22.9574L9.79077 26.2288L7.035 24.3283C6.63951 24.0554 6.10538 24.104 5.76564 24.4438L2.77889 27.4305C2.43965 27.7701 2.39111 28.3035 2.6634 28.6989L4.55501 31.4497L1.28253 32.1376C0.824811 32.2379 0.499007 32.6438 0.500002 33.1123V37.0946C0.499753 37.5655 0.829664 37.9722 1.29049 38.0693L4.56297 38.7573L2.67137 41.508C2.39908 41.9034 2.44761 42.4368 2.78685 42.7764L5.7736 45.7632C6.11334 46.1029 6.64747 46.1516 7.04297 45.8787L9.79376 43.9821L10.4817 47.2545C10.5762 47.7174 10.983 48.0501 11.4554 48.051H15.4377C15.9086 48.0513 16.3153 47.7214 16.4124 47.2605L17.1003 43.988L19.8511 45.8797C20.2465 46.1519 20.7799 46.1034 21.1195 45.7642L22.6656 44.213V47.0505C22.6701 48.4668 23.4289 49.7734 24.6568 50.4792V56.0107C24.6568 58.2101 26.4398 59.993 28.6391 59.993H32.6215C34.8208 59.993 36.6038 58.2101 36.6038 56.0107V50.4792C37.8317 49.7734 38.5905 48.4668 38.595 47.0505V43.1099C38.622 41.4519 39.4894 39.9212 40.8977 39.046C41.7239 38.51 42.5075 37.9108 43.2413 37.2539L41.9132 35.7705C41.2568 36.3589 40.5554 36.8951 39.8155 37.3744C37.8387 38.6151 36.6286 40.776 36.6038 43.1099V47.0505C36.6038 48.1502 35.7124 49.0416 34.6126 49.0416H26.648C25.5482 49.0416 24.6568 48.1502 24.6568 47.0505V43.0273C24.6338 40.7376 23.4427 38.6184 21.4988 37.4082C13.608 32.45 11.2305 22.0338 16.1888 14.143C19.2651 9.24708 24.634 6.26718 30.4162 6.24652C30.4014 6.28199 30.3884 6.3182 30.3774 6.35504C30.3405 6.61638 30.4089 6.88183 30.5676 7.09276L32.9142 10.2219C33.1616 10.5421 33.1853 10.9819 32.9739 11.327C32.7703 11.6742 32.3767 11.8636 31.9783 11.8058L28.1055 11.2523C27.5612 11.1743 27.0568 11.5522 26.9786 12.0964C26.9786 12.0968 26.9785 12.0972 26.9785 12.0976L26.1333 18.0103C26.0552 18.5545 26.4332 19.059 26.9774 19.1372C26.9778 19.1372 26.9781 19.1373 26.9785 19.1373L30.8513 19.6909C31.3957 19.7684 31.7741 20.2725 31.6966 20.8169C31.6594 21.0785 31.5196 21.3144 31.3083 21.473L28.1792 23.8195C27.7393 24.1494 27.6501 24.7734 27.9801 25.2134L31.5642 29.9921C31.8941 30.4321 32.5181 30.5212 32.958 30.1913L36.0881 27.8447C36.5284 27.5154 37.1524 27.6054 37.4816 28.0458C37.6392 28.2565 37.707 28.5211 37.6701 28.7815L37.1175 32.6543C37.0394 33.1985 37.4172 33.7032 37.9615 33.7813C37.9616 33.7813 37.9616 33.7813 37.9618 33.7813L43.8755 34.6266C43.9221 34.6326 43.969 34.6355 44.0159 34.6355C44.5116 34.6362 44.9321 34.272 45.0025 33.7813L45.5551 29.9085C45.6326 29.3642 46.1367 28.9857 46.6811 29.0633C46.9427 29.1005 47.1786 29.2402 47.3372 29.4515L49.6847 32.5807C50.0147 33.0206 50.6386 33.1097 51.0786 32.7798L55.8574 29.1957C56.2973 28.8658 56.3864 28.2418 56.0565 27.8019L53.7099 24.6728C53.4636 24.3521 53.4398 23.913 53.6502 23.5677C53.8494 23.2158 54.2466 23.0252 54.6457 23.0898L58.5185 23.6423C59.0628 23.7205 59.5674 23.3425 59.6455 22.7983C59.6455 22.7982 59.6455 22.7982 59.6455 22.7981L60.4898 16.8843C60.568 16.34 60.1901 15.8355 59.6458 15.7573ZM26.648 51.0328H34.6126V53.0239H26.648V51.0328ZM26.648 55.0151H34.6126V56.0107C34.6126 57.1104 33.7212 58.0019 32.6215 58.0019H28.6391C27.5394 58.0019 26.648 57.1104 26.648 56.0107V55.0151ZM18.7221 37.8463C19.2657 38.2908 19.8337 38.7047 20.4236 39.0858C21.3643 39.6803 22.0724 40.5797 22.4297 41.6335L20.2942 43.765L18.2263 42.3394C17.3209 41.7154 16.081 41.9436 15.4569 42.8491C15.3073 43.0663 15.2023 43.3109 15.148 43.5689L14.6263 46.0549H12.2598L11.7381 43.5729C11.5116 42.4968 10.4557 41.808 9.3796 42.0345C9.12162 42.0887 8.87695 42.1938 8.65979 42.3433L6.59097 43.765L4.77702 41.9551L6.2017 39.8882C6.8263 38.9831 6.59881 37.7431 5.69371 37.1185C5.47642 36.9686 5.23151 36.8633 4.97315 36.8089L2.49117 36.2862V33.9207L4.97315 33.398C6.04888 33.1699 6.73608 32.113 6.50797 31.0371C6.45383 30.7819 6.35017 30.5398 6.2027 30.3247L4.77702 28.2519L6.59097 26.4419L8.66079 27.8676C9.56664 28.4909 10.8065 28.2619 11.4299 27.3561C11.5792 27.1392 11.684 26.8948 11.7381 26.637L11.9124 25.8087C12.0719 26.9559 12.3361 28.0859 12.7019 29.1847C9.42602 29.5752 7.08702 32.5476 7.47754 35.8234C7.86806 39.0992 10.8404 41.4382 14.1162 41.0477C16.0882 40.8125 17.8144 39.6127 18.7221 37.8463ZM17.176 36.4435C16.4326 38.51 14.1548 39.5825 12.0883 38.8391C10.0219 38.0957 8.94938 35.8179 9.69271 33.7515C10.2614 32.1706 11.7624 31.1177 13.4424 31.1211C13.4554 31.1211 13.4673 31.1211 13.4803 31.1211C14.3958 33.0953 15.6462 34.8959 17.176 36.4435ZM57.8097 21.5277L54.9225 21.1155C53.2895 20.8823 51.7767 22.0172 51.5435 23.65C51.4315 24.4342 51.6356 25.2308 52.111 25.8645L53.8602 28.1971L50.6744 30.5865L48.9241 28.2549C47.9345 26.9351 46.0624 26.6674 44.7428 27.657C44.1091 28.1322 43.6901 28.8396 43.5778 29.6238L43.1746 32.515L39.2331 31.9515L39.6453 29.0643C39.8791 27.4314 38.7449 25.9181 37.112 25.6844C36.3274 25.572 35.5304 25.7761 34.8964 26.2517L32.5637 28.001L30.1743 24.8151L32.506 23.0649C33.8257 22.0753 34.0934 20.2032 33.1038 18.8836C32.6287 18.2499 31.9212 17.8309 31.1371 17.7186L28.2499 17.3064L28.8134 13.3649L31.7006 13.7771C33.3334 14.0109 34.8467 12.8767 35.0804 11.2438C35.1928 10.4592 34.9887 9.66224 34.5131 9.02818L32.7579 6.69354L35.9437 4.30414L37.694 6.63679C38.6836 7.95656 40.5556 8.22424 41.8753 7.23463C42.509 6.75949 42.928 6.05201 43.0402 5.26786L43.4524 2.38067L47.3939 2.94318L46.9817 5.83037C46.7485 7.46337 47.8832 8.97616 49.5162 9.20937C50.3004 9.32137 51.097 9.11728 51.7307 8.64189L54.0633 6.89265L56.4527 10.0785L54.1201 11.8287C52.8003 12.8184 52.5326 14.6904 53.5222 16.0101C53.9974 16.6438 54.7048 17.0628 55.489 17.175L58.3762 17.5872L57.8097 21.5277Z" fill="#615EFC"/>
<path d="M43.31 9.47656C38.9113 9.47656 35.3453 13.0425 35.3453 17.4412C35.3453 21.84 38.9113 25.4059 43.31 25.4059C47.7087 25.4059 51.2747 21.84 51.2747 17.4412C51.2697 13.0445 47.7067 9.48142 43.31 9.47656ZM43.31 23.4147C40.0109 23.4147 37.3365 20.7403 37.3365 17.4412C37.3365 14.1421 40.0109 11.4677 43.31 11.4677C46.6091 11.4677 49.2835 14.1421 49.2835 17.4412C49.2796 20.7387 46.6075 23.4109 43.31 23.4147Z" fill="#615EFC"/>
<path d="M31.6259 44.0625H29.6348V47.0492H31.6259V44.0625Z" fill="#615EFC"/>
<path d="M26.2757 34.2827C20.1299 31.8818 17.094 24.9533 19.4949 18.8074C20.4253 16.426 22.095 14.4059 24.2587 13.0439L23.1944 11.3594C16.6813 15.4625 14.7276 24.0687 18.8308 30.5818C20.4198 33.1043 22.7759 35.0507 25.5529 36.1354C28.011 37.0772 29.6342 39.4368 29.6348 42.0691H31.626C31.6291 38.6154 29.5008 35.518 26.2757 34.2827Z" fill="#615EFC"/>
<path d="M56.5155 37.0938H49.5464V39.0849H56.5155V37.0938Z" fill="#615EFC"/>
<path d="M49.1881 42.3022L47.9136 43.832L53.8875 48.8091L55.162 47.2793L49.1881 42.3022Z" fill="#615EFC"/>
<path d="M45.564 45.0547H43.5729V52.0238H45.564V45.0547Z" fill="#615EFC"/>
<path d="M9.48071 15.2201L1.5166 17.2109L1.99922 19.1416L9.96332 17.1508L9.48071 15.2201Z" fill="#615EFC"/>
<path d="M4.3271 5.41966L3.17041 7.03906L10.1389 12.0165L11.2956 10.3971L4.3271 5.41966Z" fill="#615EFC"/>
<path d="M13.6297 0.00678861L11.7007 0.5L13.7369 8.46404L15.6659 7.97083L13.6297 0.00678861Z" fill="#615EFC"/>
</g>
<defs>
<clipPath id="clip0_1492_24866">
<rect width="60" height="60" fill="white" transform="translate(0.5)"/>
</clipPath>
</defs>
</svg>

<svg xmlns="http://www.w3.org/2000/svg" width="61" height="60" fill="none" viewBox="0 0 61 60"><g fill="#615efc" clip-path="url(#a)"><path d="m59.646 15.757-.002-.002-3.873-.552a.996.996 0 0 1-.457-1.782l3.13-2.348a.996.996 0 0 0 .199-1.394L55.059 4.9a.996.996 0 0 0-1.394-.199L50.536 7.05a.996.996 0 0 1-1.587-.937l.554-3.873a.996.996 0 0 0-.845-1.127l-5.91-.844a.996.996 0 0 0-1.127.844l-.554 3.873a.996.996 0 0 1-1.782.457l-2.347-3.13a.996.996 0 0 0-1.394-.2l-2.991 2.246a19.3 19.3 0 0 0-4.072 0A18.916 18.916 0 0 0 11.8 21.32c-.026.281-.036.561-.05.84h-.299a.996.996 0 0 0-.973.797L9.79 26.23l-2.756-1.9a.996.996 0 0 0-1.27.115L2.78 27.43a.996.996 0 0 0-.116 1.269l1.892 2.75-3.272.689a.996.996 0 0 0-.783.974v3.983c0 .47.33.877.79.974l3.273.688-1.892 2.751a.996.996 0 0 0 .116 1.268l2.987 2.987c.34.34.873.389 1.269.116l2.75-1.897.689 3.273a.996.996 0 0 0 .973.796h3.983c.47 0 .877-.33.974-.79l.688-3.273 2.751 1.892a.996.996 0 0 0 1.268-.116l1.547-1.551v2.837a3.97 3.97 0 0 0 1.99 3.43v5.53c0 2.2 1.784 3.983 3.983 3.983h3.982c2.2 0 3.983-1.783 3.983-3.982v-5.532a3.97 3.97 0 0 0 1.991-3.428V43.11a4.88 4.88 0 0 1 2.303-4.064 19 19 0 0 0 2.343-1.792l-1.328-1.483a17 17 0 0 1-2.097 1.603 6.86 6.86 0 0 0-3.212 5.736v3.94c0 1.1-.892 1.992-1.991 1.992h-7.965c-1.1 0-1.991-.892-1.991-1.992v-4.023a6.7 6.7 0 0 0-3.158-5.619c-7.891-4.958-10.268-15.374-5.31-23.265a16.87 16.87 0 0 1 14.227-7.896 1 1 0 0 0-.039.108 1 1 0 0 0 .19.738l2.347 3.129c.248.32.271.76.06 1.105a.99.99 0 0 1-.996.479l-3.873-.554a.996.996 0 0 0-1.126.844v.002l-.846 5.912a.996.996 0 0 0 .844 1.127h.002l3.872.554a.996.996 0 0 1 .457 1.782L28.18 23.82a.996.996 0 0 0-.199 1.393l3.584 4.78c.33.44.954.528 1.394.198l3.13-2.346a.995.995 0 0 1 1.582.937l-.553 3.872a.996.996 0 0 0 .845 1.127l5.913.846a.995.995 0 0 0 1.127-.845l.553-3.873a.995.995 0 0 1 1.782-.457l2.348 3.129c.33.44.954.529 1.394.199l4.778-3.584a.996.996 0 0 0 .2-1.394l-2.347-3.13a.98.98 0 0 1-.06-1.104.97.97 0 0 1 .996-.478l3.873.552a.996.996 0 0 0 1.127-.844l.844-5.914a.996.996 0 0 0-.844-1.127M26.648 51.033h7.965v1.99h-7.965zm0 3.982h7.965v.996c0 1.1-.892 1.99-1.992 1.99H28.64a1.99 1.99 0 0 1-1.991-1.99zm-7.926-17.169a19 19 0 0 0 1.702 1.24 4.86 4.86 0 0 1 2.006 2.547l-2.136 2.132-2.068-1.426a1.99 1.99 0 0 0-3.078 1.23l-.522 2.486H12.26l-.522-2.482a1.99 1.99 0 0 0-3.078-1.23l-2.07 1.422-1.814-1.81 1.425-2.067a1.99 1.99 0 0 0-1.229-3.08l-2.482-.522v-2.365l2.482-.523a1.99 1.99 0 0 0 1.23-3.073l-1.426-2.073 1.814-1.81 2.07 1.426a1.99 1.99 0 0 0 3.077-1.231l.174-.828c.16 1.147.424 2.277.79 3.376a5.974 5.974 0 1 0 6.02 8.661m-1.546-1.402a3.976 3.976 0 1 1-3.734-5.323h.038a18.9 18.9 0 0 0 3.696 5.323M57.81 21.528l-2.888-.412a2.987 2.987 0 0 0-2.811 4.749l1.75 2.332-3.187 2.39-1.75-2.332a2.987 2.987 0 0 0-5.346 1.369l-.403 2.891-3.942-.564.412-2.887a2.987 2.987 0 0 0-4.749-2.812L32.564 28l-2.39-3.186 2.332-1.75a2.987 2.987 0 0 0-1.369-5.346l-2.887-.413.563-3.941 2.888.412a2.987 2.987 0 0 0 2.812-4.749l-1.755-2.334 3.186-2.39 1.75 2.333a2.987 2.987 0 0 0 5.346-1.37l.412-2.886 3.942.562-.412 2.887a2.987 2.987 0 0 0 4.749 2.812l2.332-1.75 2.39 3.186-2.333 1.75a2.987 2.987 0 0 0 1.369 5.347l2.887.412z"/><path d="M43.31 9.477a7.965 7.965 0 1 0 7.965 7.964 7.974 7.974 0 0 0-7.965-7.964m0 13.938a5.973 5.973 0 1 1 5.973-5.974 5.98 5.98 0 0 1-5.973 5.974M31.626 44.063h-1.991v2.986h1.99zm-5.35-9.78c-6.146-2.401-9.182-9.33-6.781-15.476.93-2.381 2.6-4.401 4.764-5.763l-1.065-1.685c-6.513 4.104-8.466 12.71-4.363 19.223a13.94 13.94 0 0 0 6.722 5.553 6.36 6.36 0 0 1 4.082 5.934h1.991a8.33 8.33 0 0 0-5.35-7.786m30.24 2.811h-6.97v1.99h6.97zm-7.328 5.208-1.274 1.53 5.974 4.977 1.274-1.53zm-3.624 2.753h-1.991v6.969h1.991zM9.48 15.22l-7.963 1.99.482 1.932 7.964-1.991zm-5.153-9.8L3.17 7.04l6.969 4.977 1.157-1.62zM13.63.007 11.7.5l2.037 7.964 1.929-.493z"/></g><defs><clipPath id="a"><path fill="#fff" d="M.5 0h60v60H.5z"/></clipPath></defs></svg>
